src/lib/packages/icons/src/assets/line/arrows-up-down.svg

<svg width="24" height="24" viewBox="0 0 24 24" fill="none" xmlns="http://www.w3.org/2000/svg">
<path d="M16.5301 16.4701C16.8231 16.7631 16.8231 17.2381 16.5301 17.5311L12.5301 21.5311C12.4611 21.6001 12.3781 21.6552 12.2871 21.6932C12.1961 21.7312 12.098 21.7511 12 21.7511C11.902 21.7511 11.8049 21.7312 11.7129 21.6932C11.6209 21.6552 11.539 21.6001 11.47 21.5311L7.46999 17.5311C7.17699 17.2381 7.17699 16.7631 7.46999 16.4701C7.76299 16.1771 8.23803 16.1771 8.53103 16.4701L11.251 19.1901V4.81115L8.53103 7.53112C8.23803 7.82412 7.76299 7.82412 7.46999 7.53112C7.17699 7.23812 7.17699 6.76309 7.46999 6.47009L11.47 2.47009C11.539 2.40109 11.6221 2.34622 11.7141 2.30822C11.8971 2.23222 12.1041 2.23222 12.2871 2.30822C12.3791 2.34622 12.462 2.40109 12.531 2.47009L16.531 6.47009C16.824 6.76309 16.824 7.23812 16.531 7.53112C16.385 7.67712 16.193 7.75109 16.001 7.75109C15.809 7.75109 15.617 7.67812 15.471 7.53112L12.751 4.81115V19.1901L15.471 16.4701C15.763 16.1771 16.2371 16.1771 16.5301 16.4701Z" fill="currentColor"/>
</svg>

<svg xmlns="http://www.w3.org/2000/svg" width="24" height="24" fill="none"><path fill="currentColor" d="M16.53 16.47a.75.75 0 0 1 0 1.061l-4 4a.756.756 0 0 1-.817.162.745.745 0 0 1-.243-.162l-4-4a.75.75 0 1 1 1.061-1.06l2.72 2.72V4.81l-2.72 2.72A.75.75 0 0 1 7.47 6.47l4-4a.749.749 0 0 1 .817-.163.748.748 0 0 1 .244.162l4 4a.75.75 0 0 1-1.06 1.061l-2.72-2.72v14.38l2.72-2.72a.748.748 0 0 1 1.06 0Z"/></svg>
